icons/1_Primary/Kiva.svg

<svg xmlns="http://www.w3.org/2000/svg" viewBox="0 0 1024 1024">
   <circle cx="512" cy="512" r="512" style="fill:#2aa967"/>
   <path d="M265.09 361.85h-49.44V608.7h49.44ZM395 608.68h49.44V440.9H395Zm126.49 0h56.93l56.94-167.78h-49.45s-26.44 91-34.5 119.93h-.57c-8.06-29-35.07-119.93-35.07-119.93h-52.32ZM807.8 440.9h-47.73v23c-8.06-17.72-27-27.77-49.44-27.77-40.24 0-72.45 33.68-72.45 88.61s31 88.61 70.14 88.61c27.6 0 43.7-13.58 52.33-29v24.22h47.71Zm-48.85 88c0 30.73-18.4 45.49-36.8 45.49-20.12 0-33.35-21.27-33.35-49.63s13.8-49.63 35.07-49.63c17.24 0 35.07 14.76 35.07 45.49v8.28Zm-481.22-8.28c79.34 0 97.74-67.94 97.74-79.76h-6.89c-79.34 0-97.74 67.94-97.74 79.76Zm-6.89 5.91c0 12.4 13.8 81.52 98.89 81.52h6.89c0-12.4-13.8-81.52-98.89-81.52Zm178.8-131.76c0-15.95-12.07-29.54-27.6-29.54h-1.72c-15.52-.59-28.75 11.81-29.32 27.77v1.77c0 15.95 12.07 29.54 27.6 29.54h1.72c15.52.59 28.75-11.81 29.32-27.77Z" style="fill:#fff"/>
</svg>

<svg width="1024" height="1024" viewBox="0 0 1024 1024" fill="none" xmlns="http://www.w3.org/2000/svg">
<g clip-path="url(#clip0_2_2613)">
<path d="M512 1024C794.77 1024 1024 794.77 1024 512C1024 229.23 794.77 0 512 0C229.23 0 0 229.23 0 512C0 794.77 229.23 1024 512 1024Z" fill="#98DC9A"/>
<path d="M265.09 361.85H215.65V608.7H265.09V361.85ZM395 608.68H444.44V440.9H395V608.68ZM521.49 608.68H578.42L635.36 440.9H585.91C585.91 440.9 559.47 531.9 551.41 560.83H550.84C542.78 531.83 515.77 440.9 515.77 440.9H463.45L521.49 608.68ZM807.8 440.9H760.07V463.9C752.01 446.18 733.07 436.13 710.63 436.13C670.39 436.13 638.18 469.81 638.18 524.74C638.18 579.67 669.18 613.35 708.32 613.35C735.92 613.35 752.02 599.77 760.65 584.35V608.57H808.36L807.8 440.9ZM758.95 528.9C758.95 559.63 740.55 574.39 722.15 574.39C702.03 574.39 688.8 553.12 688.8 524.76C688.8 496.4 702.6 475.13 723.87 475.13C741.11 475.13 758.94 489.89 758.94 520.62V528.9H758.95ZM277.73 520.62C357.07 520.62 375.47 452.68 375.47 440.86H368.58C289.24 440.86 270.84 508.8 270.84 520.62H277.73ZM270.84 526.53C270.84 538.93 284.64 608.05 369.73 608.05H376.62C376.62 595.65 362.82 526.53 277.73 526.53H270.84ZM449.64 394.77C449.64 378.82 437.57 365.23 422.04 365.23H420.32C404.8 364.64 391.57 377.04 391 393V394.77C391 410.72 403.07 424.31 418.6 424.31H420.32C435.84 424.9 449.07 412.5 449.64 396.54V394.77Z" fill="white"/>
</g>
<defs>
<clipPath id="clip0_2_2613">
<rect width="1024" height="1024" fill="white"/>
</clipPath>
</defs>
</svg>
